X: 172
T: Unnamed
F: https://archive.org/details/GamutFortheFifes
B: John Treat - "Gamut for the Fifes", 1779, p.17 #2
Z: 2017 John Chambers <jc:trillian.mit.edu>
M: 6/8
L: 1/8
K: Gmix
% - - - - - - - - - - - - - - - - - - - - - - - - -
D2 |\
G2 G2 G2 | F2 A2 A2 | c2 c2 dc | B4 A2 |\
G2 G2 G2 | F2 A2 A2 | d2 F2 E2 | D4 |]
D2 |\
G3 A B3 G | A3 B c3 A | d2 f2 e2 | d3 B2 c |\
d2 B2 d2 | c2 B2 A2 | A2 A2 G2 | G4 |]
% - - - - - - - - - - - - - - - - - - - - - - - - -
